gtk-icons/Papirus-GTK/16x16/mimetypes/text-x-hex.svg

<?xml version="1.0" encoding="UTF-8" standalone="no"?>
<svg
   xmlns:dc="http://purl.org/dc/elements/1.1/"
   xmlns:cc="http://creativecommons.org/ns#"
   xmlns:rdf="http://www.w3.org/1999/02/22-rdf-syntax-ns#"
   xmlns:svg="http://www.w3.org/2000/svg"
   xmlns="http://www.w3.org/2000/svg"
   xmlns:xlink="http://www.w3.org/1999/xlink"
   xmlns:sodipodi="http://sodipodi.sourceforge.net/DTD/sodipodi-0.dtd"
   xmlns:inkscape="http://www.inkscape.org/namespaces/inkscape"
   width="16px"
   height="16px"
   viewBox="0 0 16 16"
   version="1.1"
   id="svg2"
   inkscape:version="0.91 r"
   sodipodi:docname="text-x-hex.svg">
  <metadata
     id="metadata67">
    <rdf:RDF>
      <cc:Work
         rdf:about="">
        <dc:format>image/svg+xml</dc:format>
        <dc:type
           rdf:resource="http://purl.org/dc/dcmitype/StillImage" />
      </cc:Work>
    </rdf:RDF>
  </metadata>
  <sodipodi:namedview
     pagecolor="#ffffff"
     bordercolor="#666666"
     borderopacity="1"
     objecttolerance="10"
     gridtolerance="10"
     guidetolerance="10"
     inkscape:pageopacity="0"
     inkscape:pageshadow="2"
     inkscape:window-width="1535"
     inkscape:window-height="876"
     id="namedview65"
     showgrid="false"
     inkscape:zoom="14.75"
     inkscape:cx="-4.0338983"
     inkscape:cy="8"
     inkscape:window-x="65"
     inkscape:window-y="24"
     inkscape:window-maximized="1"
     inkscape:current-layer="svg2" />
  <defs
     id="defs4">
    <filter
       id="alpha"
       filterUnits="objectBoundingBox"
       x="0%"
       y="0%"
       width="100%"
       height="100%">
      <feColorMatrix
         type="matrix"
         in="SourceGraphic"
         values="0 0 0 0 1 0 0 0 0 1 0 0 0 0 1 0 0 0 1 0"
         id="feColorMatrix7" />
    </filter>
    <mask
       id="mask0">
      <g
         filter="url(#alpha)"
         id="g10">
        <rect
           x="0"
           y="0"
           width="16"
           height="16"
           style="fill:rgb(0%,0%,0%);fill-opacity:0.501961;stroke:none;"
           id="rect12" />
      </g>
    </mask>
    <clipPath
       id="clip1">
      <rect
         width="16"
         height="16"
         id="rect15" />
    </clipPath>
    <g
       id="surface108"
       clip-path="url(#clip1)">
      <path
         style=" stroke:none;fill-rule:nonzero;fill:rgb(0%,0%,0%);fill-opacity:1;"
         d="M 4.25 2.75 C 4.113281 2.75 4 2.863281 4 3 L 4 4.5 C 4 4.636719 4.113281 4.75 4.25 4.75 L 5.25 4.75 C 5.386719 4.75 5.5 4.636719 5.5 4.5 L 5.5 3 C 5.5 2.863281 5.386719 2.75 5.25 2.75 Z M 4.5 3.25 L 5 3.25 L 5 4.25 L 4.5 4.25 Z M 4.5 3.25 "
         id="path18" />
      <path
         style=" stroke:none;fill-rule:nonzero;fill:rgb(0%,0%,0%);fill-opacity:1;"
         d="M 6.375 2.75 L 6.625 2.75 C 6.695312 2.75 6.75 2.804688 6.75 2.875 L 6.75 4.625 C 6.75 4.695312 6.695312 4.75 6.625 4.75 L 6.375 4.75 C 6.304688 4.75 6.25 4.695312 6.25 4.625 L 6.25 2.875 C 6.25 2.804688 6.304688 2.75 6.375 2.75 Z M 6.375 2.75 "
         id="path20" />
      <path
         style=" stroke:none;fill-rule:nonzero;fill:rgb(0%,0%,0%);fill-opacity:1;"
         d="M 7.625 2.75 L 7.875 2.75 C 7.945312 2.75 8 2.804688 8 2.875 L 8 4.625 C 8 4.695312 7.945312 4.75 7.875 4.75 L 7.625 4.75 C 7.554688 4.75 7.5 4.695312 7.5 4.625 L 7.5 2.875 C 7.5 2.804688 7.554688 2.75 7.625 2.75 Z M 7.625 2.75 "
         id="path22" />
      <path
         style=" stroke:none;fill-rule:nonzero;fill:rgb(0%,0%,0%);fill-opacity:1;"
         d="M 8.75 2.75 C 8.613281 2.75 8.5 2.863281 8.5 3 L 8.5 4.5 C 8.5 4.636719 8.613281 4.75 8.75 4.75 L 9.75 4.75 C 9.886719 4.75 10 4.636719 10 4.5 L 10 3 C 10 2.863281 9.886719 2.75 9.75 2.75 Z M 9 3.25 L 9.5 3.25 L 9.5 4.25 L 9 4.25 Z M 9 3.25 "
         id="path24" />
      <path
         style=" stroke:none;fill-rule:nonzero;fill:rgb(0%,0%,0%);fill-opacity:1;"
         d="M 6.25 5.5 C 6.113281 5.5 6 5.613281 6 5.75 L 6 7.25 C 6 7.386719 6.113281 7.5 6.25 7.5 L 7.25 7.5 C 7.386719 7.5 7.5 7.386719 7.5 7.25 L 7.5 5.75 C 7.5 5.613281 7.386719 5.5 7.25 5.5 Z M 6.5 6 L 7 6 L 7 7 L 6.5 7 Z M 6.5 6 "
         id="path26" />
      <path
         style=" stroke:none;fill-rule:nonzero;fill:rgb(0%,0%,0%);fill-opacity:1;"
         d="M 8.375 5.5 L 8.625 5.5 C 8.695312 5.5 8.75 5.554688 8.75 5.625 L 8.75 7.375 C 8.75 7.445312 8.695312 7.5 8.625 7.5 L 8.375 7.5 C 8.304688 7.5 8.25 7.445312 8.25 7.375 L 8.25 5.625 C 8.25 5.554688 8.304688 5.5 8.375 5.5 Z M 8.375 5.5 "
         id="path28" />
      <path
         style=" stroke:none;fill-rule:nonzero;fill:rgb(0%,0%,0%);fill-opacity:1;"
         d="M 9.625 5.5 L 9.875 5.5 C 9.945312 5.5 10 5.554688 10 5.625 L 10 7.375 C 10 7.445312 9.945312 7.5 9.875 7.5 L 9.625 7.5 C 9.554688 7.5 9.5 7.445312 9.5 7.375 L 9.5 5.625 C 9.5 5.554688 9.554688 5.5 9.625 5.5 Z M 9.625 5.5 "
         id="path30" />
      <path
         style=" stroke:none;fill-rule:nonzero;fill:rgb(0%,0%,0%);fill-opacity:1;"
         d="M 10.75 5.5 C 10.613281 5.5 10.5 5.613281 10.5 5.75 L 10.5 7.25 C 10.5 7.386719 10.613281 7.5 10.75 7.5 L 11.75 7.5 C 11.886719 7.5 12 7.386719 12 7.25 L 12 5.75 C 12 5.613281 11.886719 5.5 11.75 5.5 Z M 11 6 L 11.5 6 L 11.5 7 L 11 7 Z M 11 6 "
         id="path32" />
      <path
         style=" stroke:none;fill-rule:nonzero;fill:rgb(0%,0%,0%);fill-opacity:1;"
         d="M 6.25 8.25 C 6.113281 8.25 6 8.363281 6 8.5 L 6 10 C 6 10.136719 6.113281 10.25 6.25 10.25 L 7.25 10.25 C 7.386719 10.25 7.5 10.136719 7.5 10 L 7.5 8.5 C 7.5 8.363281 7.386719 8.25 7.25 8.25 Z M 6.5 8.75 L 7 8.75 L 7 9.75 L 6.5 9.75 Z M 6.5 8.75 "
         id="path34" />
      <path
         style=" stroke:none;fill-rule:nonzero;fill:rgb(0%,0%,0%);fill-opacity:1;"
         d="M 8.375 8.25 L 8.625 8.25 C 8.695312 8.25 8.75 8.304688 8.75 8.375 L 8.75 10.125 C 8.75 10.195312 8.695312 10.25 8.625 10.25 L 8.375 10.25 C 8.304688 10.25 8.25 10.195312 8.25 10.125 L 8.25 8.375 C 8.25 8.304688 8.304688 8.25 8.375 8.25 Z M 8.375 8.25 "
         id="path36" />
      <path
         style=" stroke:none;fill-rule:nonzero;fill:rgb(0%,0%,0%);fill-opacity:1;"
         d="M 9.625 8.25 L 9.875 8.25 C 9.945312 8.25 10 8.304688 10 8.375 L 10 10.125 C 10 10.195312 9.945312 10.25 9.875 10.25 L 9.625 10.25 C 9.554688 10.25 9.5 10.195312 9.5 10.125 L 9.5 8.375 C 9.5 8.304688 9.554688 8.25 9.625 8.25 Z M 9.625 8.25 "
         id="path38" />
      <path
         style=" stroke:none;fill-rule:nonzero;fill:rgb(0%,0%,0%);fill-opacity:1;"
         d="M 10.75 8.25 C 10.613281 8.25 10.5 8.363281 10.5 8.5 L 10.5 10 C 10.5 10.136719 10.613281 10.25 10.75 10.25 L 11.75 10.25 C 11.886719 10.25 12 10.136719 12 10 L 12 8.5 C 12 8.363281 11.886719 8.25 11.75 8.25 Z M 11 8.75 L 11.5 8.75 L 11.5 9.75 L 11 9.75 Z M 11 8.75 "
         id="path40" />
      <path
         style=" stroke:none;fill-rule:nonzero;fill:rgb(0%,0%,0%);fill-opacity:1;"
         d="M 4.25 11 C 4.113281 11 4 11.113281 4 11.25 L 4 12.75 C 4 12.886719 4.113281 13 4.25 13 L 5.25 13 C 5.386719 13 5.5 12.886719 5.5 12.75 L 5.5 11.25 C 5.5 11.113281 5.386719 11 5.25 11 Z M 4.5 11.5 L 5 11.5 L 5 12.5 L 4.5 12.5 Z M 4.5 11.5 "
         id="path42" />
      <path
         style=" stroke:none;fill-rule:nonzero;fill:rgb(0%,0%,0%);fill-opacity:1;"
         d="M 6.375 11 L 6.625 11 C 6.695312 11 6.75 11.054688 6.75 11.125 L 6.75 12.875 C 6.75 12.945312 6.695312 13 6.625 13 L 6.375 13 C 6.304688 13 6.25 12.945312 6.25 12.875 L 6.25 11.125 C 6.25 11.054688 6.304688 11 6.375 11 Z M 6.375 11 "
         id="path44" />
      <path
         style=" stroke:none;fill-rule:nonzero;fill:rgb(0%,0%,0%);fill-opacity:1;"
         d="M 7.625 11 L 7.875 11 C 7.945312 11 8 11.054688 8 11.125 L 8 12.875 C 8 12.945312 7.945312 13 7.875 13 L 7.625 13 C 7.554688 13 7.5 12.945312 7.5 12.875 L 7.5 11.125 C 7.5 11.054688 7.554688 11 7.625 11 Z M 7.625 11 "
         id="path46" />
      <path
         style=" stroke:none;fill-rule:nonzero;fill:rgb(0%,0%,0%);fill-opacity:1;"
         d="M 8.75 11 C 8.613281 11 8.5 11.113281 8.5 11.25 L 8.5 12.75 C 8.5 12.886719 8.613281 13 8.75 13 L 9.75 13 C 9.886719 13 10 12.886719 10 12.75 L 10 11.25 C 10 11.113281 9.886719 11 9.75 11 Z M 9 11.5 L 9.5 11.5 L 9.5 12.5 L 9 12.5 Z M 9 11.5 "
         id="path48" />
      <path
         style=" stroke:none;fill-rule:nonzero;fill:rgb(0%,0%,0%);fill-opacity:1;"
         d="M 4.625 5.5 L 4.875 5.5 C 4.945312 5.5 5 5.554688 5 5.625 L 5 7.375 C 5 7.445312 4.945312 7.5 4.875 7.5 L 4.625 7.5 C 4.554688 7.5 4.5 7.445312 4.5 7.375 L 4.5 5.625 C 4.5 5.554688 4.554688 5.5 4.625 5.5 Z M 4.625 5.5 "
         id="path50" />
      <path
         style=" stroke:none;fill-rule:nonzero;fill:rgb(0%,0%,0%);fill-opacity:1;"
         d="M 11.125 11 L 11.375 11 C 11.445312 11 11.5 11.054688 11.5 11.125 L 11.5 12.875 C 11.5 12.945312 11.445312 13 11.375 13 L 11.125 13 C 11.054688 13 11 12.945312 11 12.875 L 11 11.125 C 11 11.054688 11.054688 11 11.125 11 Z M 11.125 11 "
         id="path52" />
      <path
         style=" stroke:none;fill-rule:nonzero;fill:rgb(0%,0%,0%);fill-opacity:1;"
         d="M 4.25 8.25 C 4.113281 8.25 4 8.363281 4 8.5 L 4 10 C 4 10.136719 4.113281 10.25 4.25 10.25 L 5.25 10.25 C 5.386719 10.25 5.5 10.136719 5.5 10 L 5.5 8.5 C 5.5 8.363281 5.386719 8.25 5.25 8.25 Z M 4.5 8.75 L 5 8.75 L 5 9.75 L 4.5 9.75 Z M 4.5 8.75 "
         id="path54" />
    </g>
  </defs>
  <g
     id="surface1"
     transform="matrix(1.2,0,0,1.2,-1.6,-1.1)">
    <path
       style="fill:#ebe8d7;fill-opacity:1;fill-rule:nonzero;stroke:none"
       d="M 3.625,1.75 C 3.277344,1.75 3,2.027344 3,2.375 l 0,11.25 c 0,0.347656 0.277344,0.625 0.625,0.625 l 8.75,0 C 12.722656,14.25 13,13.972656 13,13.625 L 13,5.5 9.5625,5.1875 9.25,1.75 Z m 0,0"
       id="path57"
       inkscape:connector-curvature="0" />
    <use
       xlink:href="#surface108"
       mask="url(#mask0)"
       id="use59"
       x="0"
       y="0"
       width="100%"
       height="100%" />
    <path
       style="fill:#f8f8f0;fill-opacity:1;fill-rule:nonzero;stroke:none"
       d="m 9.25,1.75 0,3.125 C 9.25,5.21875 9.53125,5.5 9.875,5.5 L 13,5.5 Z m 0,0"
       id="path61"
       inkscape:connector-curvature="0" />
    <path
       style="fill:#ffffff;fill-opacity:0.2;fill-rule:nonzero;stroke:none"
       d="M 3.625,1.75 C 3.277344,1.75 3,2.027344 3,2.375 l 0,0.5 C 3,2.527344 3.277344,2.25 3.625,2.25 l 5.625,0 c 0,-0.5 0,0 0,-0.5 z m 0,0"
       id="path63"
       inkscape:connector-curvature="0" />
  </g>
</svg>

<?xml version="1.0" encoding="UTF-8" standalone="no"?>
<svg id="svg2" xmlns:rdf="http://www.w3.org/1999/02/22-rdf-syntax-ns#" xmlns="http://www.w3.org/2000/svg" height="16px" width="16px" version="1.1" xmlns:cc="http://creativecommons.org/ns#" xmlns:xlink="http://www.w3.org/1999/xlink" viewBox="0 0 16 16" xmlns:dc="http://purl.org/dc/elements/1.1/">
 <metadata id="metadata67">
  <rdf:RDF>
   <cc:Work rdf:about="">
    <dc:format>image/svg+xml</dc:format>
    <dc:type rdf:resource="http://purl.org/dc/dcmitype/StillImage"/>
   </cc:Work>
  </rdf:RDF>
 </metadata>
 <defs id="defs4">
  <filter id="alpha" height="100%" width="100%" y="0%" x="0%" filterUnits="objectBoundingBox">
   <feColorMatrix id="feColorMatrix7" values="0 0 0 0 1 0 0 0 0 1 0 0 0 0 1 0 0 0 1 0" type="matrix" in="SourceGraphic"/>
  </filter>
  <mask id="mask0">
   <g id="g10" filter="url(#alpha)">
    <rect id="rect12" fill-opacity=".50196" height="16" width="16" y="0" x="0"/>
   </g>
  </mask>
  <clipPath id="clip1">
   <rect id="rect15" width="16" height="16"/>
  </clipPath>
  <g id="surface108" clip-path="url(#clip1)">
   <path id="path18" d="m4.25 2.75c-0.1367 0-0.25 0.1133-0.25 0.25v1.5c0 0.1367 0.1133 0.25 0.25 0.25h1c0.1367 0 0.25-0.1133 0.25-0.25v-1.5c0-0.1367-0.1133-0.25-0.25-0.25zm0.25 0.5h0.5v1h-0.5z"/>
   <path id="path20" d="m6.375 2.75h0.25c0.0703 0 0.125 0.0547 0.125 0.125v1.75c0 0.0703-0.0547 0.125-0.125 0.125h-0.25c-0.0703 0-0.125-0.0547-0.125-0.125v-1.75c0-0.0703 0.0547-0.125 0.125-0.125z"/>
   <path id="path22" d="m7.625 2.75h0.25c0.0703 0 0.125 0.0547 0.125 0.125v1.75c0 0.0703-0.0547 0.125-0.125 0.125h-0.25c-0.0703 0-0.125-0.0547-0.125-0.125v-1.75c0-0.0703 0.0547-0.125 0.125-0.125z"/>
   <path id="path24" d="m8.75 2.75c-0.1367 0-0.25 0.1133-0.25 0.25v1.5c0 0.1367 0.1133 0.25 0.25 0.25h1c0.1367 0 0.25-0.1133 0.25-0.25v-1.5c0-0.1367-0.1133-0.25-0.25-0.25zm0.25 0.5h0.5v1h-0.5z"/>
   <path id="path26" d="m6.25 5.5c-0.1367 0-0.25 0.1133-0.25 0.25v1.5c0 0.1367 0.1133 0.25 0.25 0.25h1c0.1367 0 0.25-0.1133 0.25-0.25v-1.5c0-0.1367-0.1133-0.25-0.25-0.25zm0.25 0.5h0.5v1h-0.5z"/>
   <path id="path28" d="m8.375 5.5h0.25c0.0703 0 0.125 0.0547 0.125 0.125v1.75c0 0.0703-0.0547 0.125-0.125 0.125h-0.25c-0.0703 0-0.125-0.0547-0.125-0.125v-1.75c0-0.0703 0.0547-0.125 0.125-0.125z"/>
   <path id="path30" d="m9.625 5.5h0.25c0.0703 0 0.125 0.0547 0.125 0.125v1.75c0 0.0703-0.0547 0.125-0.125 0.125h-0.25c-0.0703 0-0.125-0.0547-0.125-0.125v-1.75c0-0.0703 0.0547-0.125 0.125-0.125z"/>
   <path id="path32" d="m10.75 5.5c-0.137 0-0.25 0.1133-0.25 0.25v1.5c0 0.1367 0.113 0.25 0.25 0.25h1c0.137 0 0.25-0.1133 0.25-0.25v-1.5c0-0.1367-0.113-0.25-0.25-0.25zm0.25 0.5h0.5v1h-0.5z"/>
   <path id="path34" d="m6.25 8.25c-0.1367 0-0.25 0.1133-0.25 0.25v1.5c0 0.137 0.1133 0.25 0.25 0.25h1c0.1367 0 0.25-0.113 0.25-0.25v-1.5c0-0.1367-0.1133-0.25-0.25-0.25zm0.25 0.5h0.5v1h-0.5z"/>
   <path id="path36" d="m8.375 8.25h0.25c0.0703 0 0.125 0.0547 0.125 0.125v1.75c0 0.07-0.0547 0.125-0.125 0.125h-0.25c-0.0703 0-0.125-0.055-0.125-0.125v-1.75c0-0.0703 0.0547-0.125 0.125-0.125z"/>
   <path id="path38" d="m9.625 8.25h0.25c0.0703 0 0.125 0.0547 0.125 0.125v1.75c0 0.07-0.0547 0.125-0.125 0.125h-0.25c-0.0703 0-0.125-0.055-0.125-0.125v-1.75c0-0.0703 0.0547-0.125 0.125-0.125z"/>
   <path id="path40" d="m10.75 8.25c-0.137 0-0.25 0.1133-0.25 0.25v1.5c0 0.137 0.113 0.25 0.25 0.25h1c0.137 0 0.25-0.113 0.25-0.25v-1.5c0-0.1367-0.113-0.25-0.25-0.25zm0.25 0.5h0.5v1h-0.5z"/>
   <path id="path42" d="m4.25 11c-0.1367 0-0.25 0.113-0.25 0.25v1.5c0 0.137 0.1133 0.25 0.25 0.25h1c0.1367 0 0.25-0.113 0.25-0.25v-1.5c0-0.137-0.1133-0.25-0.25-0.25zm0.25 0.5h0.5v1h-0.5z"/>
   <path id="path44" d="m6.375 11h0.25c0.0703 0 0.125 0.055 0.125 0.125v1.75c0 0.07-0.0547 0.125-0.125 0.125h-0.25c-0.0703 0-0.125-0.055-0.125-0.125v-1.75c0-0.07 0.0547-0.125 0.125-0.125z"/>
   <path id="path46" d="m7.625 11h0.25c0.0703 0 0.125 0.055 0.125 0.125v1.75c0 0.07-0.0547 0.125-0.125 0.125h-0.25c-0.0703 0-0.125-0.055-0.125-0.125v-1.75c0-0.07 0.0547-0.125 0.125-0.125z"/>
   <path id="path48" d="m8.75 11c-0.1367 0-0.25 0.113-0.25 0.25v1.5c0 0.137 0.1133 0.25 0.25 0.25h1c0.1367 0 0.25-0.113 0.25-0.25v-1.5c0-0.137-0.1133-0.25-0.25-0.25zm0.25 0.5h0.5v1h-0.5z"/>
   <path id="path50" d="m4.625 5.5h0.25c0.0703 0 0.125 0.0547 0.125 0.125v1.75c0 0.0703-0.0547 0.125-0.125 0.125h-0.25c-0.0703 0-0.125-0.0547-0.125-0.125v-1.75c0-0.0703 0.0547-0.125 0.125-0.125z"/>
   <path id="path52" d="m11.125 11h0.25c0.07 0 0.125 0.055 0.125 0.125v1.75c0 0.07-0.055 0.125-0.125 0.125h-0.25c-0.07 0-0.125-0.055-0.125-0.125v-1.75c0-0.07 0.055-0.125 0.125-0.125z"/>
   <path id="path54" d="m4.25 8.25c-0.1367 0-0.25 0.1133-0.25 0.25v1.5c0 0.137 0.1133 0.25 0.25 0.25h1c0.1367 0 0.25-0.113 0.25-0.25v-1.5c0-0.1367-0.1133-0.25-0.25-0.25zm0.25 0.5h0.5v1h-0.5z"/>
  </g>
 </defs>
 <g id="surface1" transform="matrix(1.2,0,0,1.2,-1.6,-1.1)">
  <path id="path57" d="m3.625 1.75c-0.3477 0-0.625 0.2773-0.625 0.625v11.25c0 0.34766 0.27734 0.625 0.625 0.625h8.75c0.348 0 0.625-0.277 0.625-0.625v-8.125l-3.4375-0.3125-0.3125-3.4375z" fill="#ebe8d7"/>
  <use id="use59" xlink:href="#surface108" mask="url(#mask0)" height="100%" width="100%" y="0" x="0"/>
  <path id="path61" d="m9.25 1.75v3.125c0 0.3438 0.2812 0.625 0.625 0.625h3.125z" fill="#f8f8f0"/>
  <path id="path63" d="m3.625 1.75c-0.3477 0-0.625 0.2773-0.625 0.625v0.5c0-0.3477 0.2773-0.625 0.625-0.625h5.625v-0.5z" fill-opacity=".2" fill="#fff"/>
 </g>
</svg>
